!!!COM:	Bach, Johann Sebastian
!!!CDT:	1685/02/21/-1750/07/28/
!!!OTL@@DE:	Es ist das Heil uns kommen her
!!!SCT:	BWV 917
!!!PC#:	290
!!!AGN:	chorale
**kern	**kern	**kern	**kern
*ICvox	*ICvox	*ICvox	*ICvox
*Ibass	*Itenor	*Ialto	*Isoprn
*I"Bass	*I"Tenor	*I"Alto	*I"Soprano
*>[A,A,B]	*>[A,A,B]	*>[A,A,B]	*>[A,A,B]
*>norep[A,B]	*>norep[A,B]	*>norep[A,B]	*>norep[A,B]
*>A	*>A	*>A	*>A
*	*oclefC4	*oclefC3	*oclefC1
*clefF4	*clefGv2	*clefG2	*clefG2
*k[f#c#g#d#]	*k[f#c#g#d#]	*k[f#c#g#d#]	*k[f#c#g#d#]
*E:	*E:	*E:	*E:
*M4/4	*M4/4	*M4/4	*M4/4
*met(c)	*met(c)	*met(c)	*met(c)
*MM100	*MM100	*MM100	*MM100
4E	4e	4g#	4b
=1	=1	=1	=1
4E	4B	8f#L	4b
.	.	8g#J	.
4D#	4f#	4a	4b
4E	4e	8g#L	8bL
.	.	8aJ	8cc#J
4GG#	4e	4b	4dd
=2	=2	=2	=2
4AA	8eL	8bL	4cc#
.	8f#J	8aJ	.
8BBL	4g	8dL	4b
8C#J	.	8eJ	.
4D;	4d;	4f#;	4a;
4D#	4B	4f#	8bL
.	.	.	8aJ
=3	=3	=3	=3
4.E	8BL	4e	8g#XL
.	8AJ	.	8f#J
.	4G#	4B	8eL
8D#	.	.	8f#J
8C#L	4c#	4e	4g#
8D#J	.	.	.
8EL	4F#	4c#	4a#
8F#J	.	.	.
=4	=4	=4	=4
8D#L	8F#L	4.f#	4b
8BBJ	8BJ	.	.
4F#	4A#	.	4cc#
.	.	8e	.
4BB;	4F#;	4d#;	4b;
=:|!	=:|!	=:|!	=:|!
*>B	*>B	*>B	*>B
8EL	4G#	8eL	4b
8D#J	.	8f#J	.
=5	=5	=5	=5
4C#	4c#	8g#L	4ee
.	.	8a#J	.
4BB	8d#L	4b	4dd#
.	8eJ	.	.
8F#L	4f#	8a#L	4cc#
8G#J	.	8g#J	.
8AnXL	4B	4f#	4dd#
8F#J	.	.	.
=6	=6	=6	=6
8G#L	4B	8bL	8eeL
8EJ	.	8g#J	8dd#J
4F#	8f#L	4a#	4cc#
.	8eJ	.	.
4BB;	4d#;	4f#;	4b;
8EL	4e	8g#L	4b
8F#J	.	8aJ	.
=7	=7	=7	=7
8G#L	8BL	8bL	4ee
8AJ	8c#J	8aJ	.
4B	4d	8g#L	4b
.	.	8f#J	.
8BL	8c#L	8e#L	4cc#
8AJ	8d#J	8f#J	.
8G#L	8e#L	8g#L	8g#L
8F#J	8f#J	8c#J	8aJ
=8	=8	=8	=8
4E#	8g#L	8c#L	4b
.	8c#J	8g#J	.
4F#	4c#	8g#L	4a
.	.	8f#J	.
4C#;	4c#;	8f#L	4g#;
.	.	8e#;J	.
8c#L	4c#	4e#	4g#
8BJ	.	.	.
=9	=9	=9	=9
8AL	8c#L	8f#L	8f#L
8G#J	8BJ	8enXJ	8g#J
4F#	4A	8d#L	4a
.	.	8c#J	.
8G#L	4e	8BL	4g#
8AJ	.	8c#J	.
4B	8BL	4d#	4f#
.	8AJ	.	.
=10	=10	=10	=10
8BL	4G	4e	4c#
8A#J	.	.	.
4B	8F#L	4B	4d#
.	8AJ	.	.
4E;	4G#;	4B;	4e;
==	==	==	==
*-	*-	*-	*-
!!!YOR1: 371 vierstimmige Choralges&auml;nge von Johann Sebastian Bach, 
!!!YOR2: 4th ed. by Alfred D&ouml;rffel (Leipzig: Breitkopf und H&auml;rtel, 
!!!YOR2: c.1875). 178 pp. Plate "V.A.10".  reprint: J.S. Bach, 371 Four-Part 
!!!YOR4: Chorales (New York: Associated Music Publishers, Inc., c.1940).
!!!SMS: B&H, 4th ed, Alfred D&ouml;rffel, c.1875, plate V.A.10
!!!EED:  Craig Stuart Sapp
!!!EEV:  2009/05/22
